img/ui/icons/Download-1.svg

<svg width="25" height="25" viewBox="0 0 25 25" fill="none" xmlns="http://www.w3.org/2000/svg">
<path d="M21.667 15.6377V19.6377C21.667 20.1681 21.4563 20.6768 21.0812 21.0519C20.7061 21.427 20.1974 21.6377 19.667 21.6377H5.66699C5.13656 21.6377 4.62785 21.427 4.25278 21.0519C3.87771 20.6768 3.66699 20.1681 3.66699 19.6377V15.6377M7.66699 10.6377L12.667 15.6377M12.667 15.6377L17.667 10.6377M12.667 15.6377V3.6377" stroke="black" stroke-width="1.5" stroke-linecap="round" stroke-linejoin="round"/>
</svg>

<svg width="25" height="25" fill="none" xmlns="http://www.w3.org/2000/svg"><path d="M21.667 15.638v4a2 2 0 0 1-2 2h-14a2 2 0 0 1-2-2v-4m4-5 5 5m0 0 5-5m-5 5v-12" stroke="#000" stroke-width="1.5" stroke-linecap="round" stroke-linejoin="round"/></svg>
